assets/Kite/Flat/kite_flat.svg

<svg width="32" height="32" viewBox="0 0 32 32" fill="none" xmlns="http://www.w3.org/2000/svg">
<path d="M27.9371 11.2571C28.0712 11.4985 27.9842 11.8029 27.7428 11.937C27.0325 12.3317 26.0129 13.0688 25.2758 13.9775C24.5329 14.8933 24.1538 15.8802 24.4743 16.8419C24.7745 17.7422 25.3564 18.7814 25.9793 19.8938C26.1477 20.1944 26.3191 20.5005 26.4887 20.8106C26.8785 21.5232 27.253 22.2491 27.5303 22.9472C27.8059 23.6409 28 24.3422 28 25C28 25.0535 28.0011 25.1143 28.0024 25.1817C28.0118 25.6869 28.0281 26.5581 27.623 27.4301C27.1469 28.4547 26.1367 29.4095 24.1374 29.9807C21.6006 30.7055 19.6629 29.2688 18.43 27.8041C17.807 27.064 17.3352 26.2866 17.0201 25.698C16.8621 25.4027 16.7421 25.1525 16.6612 24.9748C16.6207 24.8859 16.5899 24.8151 16.5689 24.7656C16.5584 24.7409 16.5504 24.7215 16.5448 24.7079L16.5382 24.6918L16.5364 24.6872L16.5358 24.6857C16.5354 24.6848 17.3108 24.3757 16.5358 24.6857C16.4337 24.4291 16.5586 24.1374 16.8152 24.0354C17.0717 23.9334 17.3623 24.0585 17.4645 24.3149L17.4654 24.3172L17.4698 24.328C17.474 24.3381 17.4805 24.3539 17.4894 24.3749C17.5073 24.4169 17.5346 24.4798 17.5712 24.5603C17.6446 24.7214 17.7551 24.9522 17.9018 25.2261C18.196 25.7758 18.6305 26.4895 19.195 27.1601C20.3371 28.5169 21.8994 29.5801 23.8626 29.0192C25.6487 28.5089 26.3885 27.7137 26.7161 27.0087C27.0173 26.3604 27.0088 25.727 27.0019 25.2134C27.001 25.1397 27 25.0684 27 25C27 24.5251 26.8566 23.96 26.6009 23.3164C26.347 22.6771 25.9965 21.9947 25.6113 21.2904C25.4576 21.0094 25.2972 20.7233 25.1357 20.4351C24.5059 19.3118 23.8589 18.1579 23.5257 17.1581C23.0462 15.7197 23.6671 14.3733 24.4992 13.3475C25.3371 12.3145 26.4675 11.5016 27.2572 11.0629C27.4986 10.9288 27.803 11.0158 27.9371 11.2571Z" fill="#D3D3D3"/>
<path d="M16.1808 6.6024L4.56716 2.04173C4.39651 1.97233 4.21585 1.99217 4.07532 2.0814L9.30496 12.0342L16.5622 6.89986C16.4719 6.76105 16.3414 6.66189 16.1808 6.6024Z" fill="#86D72F"/>
<path d="M16.7329 7.35588L17.7166 24.4088C17.7367 24.6368 17.6162 24.8252 17.4355 24.9144L10.6315 18.6599L9.315 11.0242L16.5723 6.88989C16.6626 7.01878 16.7229 7.18733 16.7329 7.35588ZM26.5417 18.2828L25.1417 18.3514C24.9181 18.3599 24.7139 18.4799 24.607 18.6599L23.975 19.7656C23.8097 20.057 23.3431 20.0827 23.1389 19.8084L22.0791 18.3771C21.875 18.1028 22.0889 17.7342 22.4583 17.7171L23.8583 17.6485C24.082 17.64 24.2861 17.5199 24.3931 17.34L25.025 16.2343C25.1903 15.9429 25.657 15.9171 25.8612 16.1914L26.9209 17.6228C27.1251 17.8971 26.9112 18.2656 26.5417 18.2828Z" fill="#F9C23C"/>
<path d="M2.38889 15.5453C2.23833 15.4461 2.12791 15.3173 2.05765 15.1685L5.62729 11.0342H9.32497L17.4455 24.9244C17.2748 25.0235 17.044 25.0334 16.8533 24.9046L2.38889 15.5453ZM28.4712 21.596L27.0763 21.4666C26.8439 21.4389 26.6211 21.5405 26.4952 21.7161L25.6815 22.8064C25.4587 23.0928 25.0035 23.0559 24.8485 22.7325L24.0445 21.0508C23.8895 20.7274 24.1607 20.3671 24.5288 20.404L25.9237 20.5334C26.1465 20.5611 26.3692 20.4595 26.5048 20.2839L27.3185 19.1936C27.5413 18.9072 27.9965 18.9441 28.1515 19.2675L28.9555 20.9492C29.1105 21.2726 28.8393 21.6329 28.4712 21.596Z" fill="#00A6ED"/>
<path d="M2.00753 14.6933L3.81432 2.47861C3.8344 2.30014 3.94481 2.16135 4.09538 2.08203L9.32504 11.0348L2.06777 15.1692C2.00754 15.0205 1.98745 14.8618 2.00753 14.6933ZM29.1974 26.9213L27.8525 26.2056C27.6356 26.0846 27.3644 26.0846 27.1475 26.2056L25.8026 26.9314C25.4447 27.1229 25 26.8911 25 26.508V24.512C25 24.129 25.4447 23.887 25.8026 24.0785L27.1475 24.7943C27.3644 24.9153 27.6356 24.9153 27.8525 24.7943L29.1974 24.0685C29.5553 23.8769 30 24.1088 30 24.4919V26.4878C30 26.8709 29.5553 27.1128 29.1974 26.9213Z" fill="#F8312F"/>
</svg>

<svg xmlns="http://www.w3.org/2000/svg" width="32" height="32" fill="none"><path fill="#D3D3D3" d="M27.937 11.257a.5.5 0 0 1-.194.68c-.71.395-1.73 1.132-2.467 2.04-.743.916-1.122 1.903-.802 2.865.3.9.882 1.94 1.505 3.052.169.3.34.607.51.917.39.712.764 1.438 1.041 2.136.276.694.47 1.395.47 2.053l.002.182c.01.505.026 1.376-.379 2.248-.476 1.025-1.486 1.98-3.486 2.55-2.536.726-4.474-.711-5.707-2.176a12.415 12.415 0 0 1-1.41-2.106 12.73 12.73 0 0 1-.475-.99l-.007-.016-.002-.005v-.001c0-.001.775-.31 0 0a.5.5 0 0 1 .928-.371l.001.002.005.011.02.047a11.681 11.681 0 0 0 .412.851c.294.55.729 1.264 1.293 1.934 1.142 1.357 2.704 2.42 4.668 1.86 1.786-.511 2.526-1.306 2.853-2.011.301-.649.293-1.282.286-1.796L27 25c0-.475-.143-1.04-.4-1.684-.253-.639-.604-1.321-.989-2.026-.153-.28-.314-.567-.475-.855-.63-1.123-1.277-2.277-1.61-3.277-.48-1.438.141-2.785.973-3.81.838-1.034 1.969-1.846 2.758-2.285a.5.5 0 0 1 .68.194Z"/><path fill="#86D72F" d="M16.18 6.602 4.568 2.042a.535.535 0 0 0-.492.04l5.23 9.952L16.562 6.9a.757.757 0 0 0-.381-.298Z"/><path fill="#F9C23C" d="m16.733 7.356.984 17.053c.02.228-.1.416-.281.505l-6.804-6.254-1.317-7.636 7.257-4.134c.09.129.15.297.16.466Zm9.809 10.927-1.4.068a.653.653 0 0 0-.535.309l-.632 1.106c-.165.291-.632.317-.836.042l-1.06-1.43c-.204-.275.01-.644.38-.66l1.4-.07a.653.653 0 0 0 .534-.308l.632-1.106c.165-.291.632-.317.836-.043l1.06 1.432c.204.274-.01.643-.38.66Z"/><path fill="#00A6ED" d="M2.389 15.545a.919.919 0 0 1-.331-.377l3.57-4.134h3.697l8.12 13.89a.557.557 0 0 1-.592-.02L2.39 15.546Zm26.082 6.051-1.395-.13a.625.625 0 0 0-.58.25l-.814 1.09c-.223.287-.678.25-.833-.073l-.805-1.682c-.154-.324.117-.684.485-.647l1.395.13a.644.644 0 0 0 .58-.25l.814-1.09c.223-.287.678-.25.833.073l.805 1.682c.154.324-.117.684-.485.647Z"/><path fill="#F8312F" d="M2.008 14.693 3.814 2.48a.512.512 0 0 1 .281-.397l5.23 8.953-7.257 4.134a.949.949 0 0 1-.06-.476Zm27.19 12.228-1.346-.715a.73.73 0 0 0-.704 0l-1.345.725c-.358.192-.803-.04-.803-.423v-1.996c0-.383.445-.625.803-.434l1.345.716a.73.73 0 0 0 .704 0l1.345-.726c.358-.191.803.04.803.424v1.996c0 .383-.445.625-.803.433Z"/></svg>
